X: 5
T: The Britches Full Of Stitches
R: polka
M: 2/4
L: 1/8
K: Amaj
A>B cA|BA cA|A>B cA|BA F2|
A>B cA|BA ce|A>B AF|FE E2:|:
e>f ec|BA Bc|e>f ec|BA F2|
e>f ec|BA Bc|A>B AF|FE E2:|


Tune 1075	Setting 24427

